src/shared/routelogo/images/si.svg

<?xml version="1.0" standalone="no"?>
<!DOCTYPE svg PUBLIC "-//W3C//DTD SVG 1.1//EN" "http://www.w3.org/Graphics/SVG/1.1/DTD/svg11.dtd">
<svg width="100%" height="100%" viewBox="0 0 90 90" version="1.1" xmlns="http://www.w3.org/2000/svg" xmlns:xlink="http://www.w3.org/1999/xlink" xml:space="preserve" style="fill-rule:evenodd;clip-rule:evenodd;stroke-linejoin:round;stroke-miterlimit:1.41421;">
    <g id="SIR">
        <circle cx="45" cy="45" r="45" style="fill:rgb(33,57,144);"/>
        <g>
            <path d="M18.6695,51.3185C18.8615,52.7042 19.2388,53.74 19.8013,54.4259C20.8302,55.6744 22.5932,56.2986 25.09,56.2986C26.5854,56.2986 27.7996,56.134 28.7325,55.8047C30.5023,55.1736 31.3871,54.0006 31.3871,52.2857C31.3871,51.2842 30.9481,50.5091 30.0701,49.9603C29.1921,49.4253 27.8133,48.952 25.9338,48.5404L22.7235,47.8201C19.5681,47.1067 17.3867,46.3316 16.1794,45.4947C14.1353,44.0954 13.1132,41.9072 13.1132,38.9301C13.1132,36.2137 14.101,33.9569 16.0765,32.1597C18.0521,30.3625 20.9537,29.4639 24.7814,29.4639C27.9779,29.4639 30.7046,30.311 32.9614,32.0053C35.2182,33.6997 36.4015,36.1588 36.5113,39.3828L30.4199,39.3828C30.3102,37.5582 29.5145,36.2617 28.0328,35.4934C27.045,34.9858 25.8172,34.732 24.3492,34.732C22.7166,34.732 21.4133,35.0613 20.4392,35.7198C19.4652,36.3783 18.9781,37.2975 18.9781,38.4774C18.9781,39.5612 19.4583,40.3706 20.4187,40.9057C21.036,41.2624 22.3531,41.6808 24.3698,42.161L29.5968,43.4163C31.8879,43.965 33.6165,44.699 34.7826,45.6182C36.5936,47.045 37.499,49.1097 37.499,51.8124C37.499,54.5837 36.4392,56.8851 34.3196,58.7166C32.2,60.5481 29.2058,61.4639 25.337,61.4639C21.3859,61.4639 18.2785,60.5618 16.0148,58.7578C13.7511,56.9537 12.6193,54.4739 12.6193,51.3185L18.6695,51.3185Z" style="fill:white;fill-rule:nonzero;"/>
            <rect x="40.6971" y="30.3488" width="6.29711" height="30.3331" style="fill:white;fill-rule:nonzero;"/>
            <path d="M58.2386,35.6169L58.2386,43.7661L65.4206,43.7661C66.8474,43.7661 67.9175,43.6015 68.6309,43.2722C69.893,42.696 70.5241,41.5573 70.5241,39.8562C70.5241,38.0178 69.9136,36.7831 68.6926,36.152C68.0067,35.7953 66.9777,35.6169 65.6058,35.6169L58.2386,35.6169ZM71.8309,31.1307C72.9764,31.6109 73.9471,32.3175 74.7428,33.2504C75.4013,34.0186 75.9226,34.8692 76.3068,35.8021C76.6909,36.735 76.883,37.7983 76.883,38.9918C76.883,40.4324 76.5194,41.8489 75.7923,43.2414C75.0652,44.6339 73.8647,45.6182 72.191,46.1944C73.5904,46.7569 74.5816,47.556 75.1646,48.5918C75.7477,49.6276 76.0392,51.2088 76.0392,53.3352L76.0392,55.3725C76.0392,56.7582 76.0941,57.698 76.2039,58.1918C76.3685,58.9738 76.7526,59.55 77.3563,59.9205L77.3563,60.6819L70.3801,60.6819C70.188,60.0096 70.0508,59.4677 69.9685,59.0562C69.8039,58.2056 69.7147,57.3344 69.701,56.4426L69.6598,53.6234C69.6324,51.6889 69.2791,50.3993 68.6,49.7545C67.9209,49.1097 66.6485,48.7873 64.7826,48.7873L58.2386,48.7873L58.2386,60.6819L52.0444,60.6819L52.0444,30.3488L66.9228,30.3488C69.0493,30.3899 70.6853,30.6506 71.8309,31.1307Z" style="fill:white;fill-rule:nonzero;"/>
        </g>
    </g>
</svg>

<svg viewBox="0 0 90 90" xmlns="http://www.w3.org/2000/svg" xml:space="preserve" style="fill-rule:evenodd;clip-rule:evenodd;stroke-linejoin:round;stroke-miterlimit:1.41421"><circle cx="45" cy="45" r="45" style="fill:#213990"/><path d="M18.67 51.319c.191 1.385.569 2.421 1.131 3.107 1.03 1.248 2.792 1.873 5.289 1.873 1.495 0 2.71-.165 3.643-.494 1.77-.631 2.654-1.804 2.654-3.52 0-1-.439-1.776-1.317-2.325-.878-.535-2.257-1.008-4.136-1.42l-3.21-.72c-3.156-.713-5.337-1.488-6.545-2.325-2.044-1.4-3.066-3.588-3.066-6.565 0-2.716.988-4.973 2.963-6.77 1.976-1.797 4.878-2.696 8.705-2.696 3.197 0 5.924.847 8.18 2.541 2.257 1.695 3.44 4.154 3.55 7.378H30.42c-.11-1.825-.905-3.121-2.387-3.89-.988-.507-2.216-.761-3.684-.761-1.632 0-2.936.33-3.91.988-.974.658-1.46 1.578-1.46 2.757 0 1.084.48 1.894 1.44 2.429.617.356 1.934.775 3.95 1.255l5.228 1.255c2.29.549 4.02 1.283 5.186 2.202 1.81 1.427 2.716 3.492 2.716 6.194 0 2.772-1.06 5.073-3.18 6.905-2.119 1.831-5.113 2.747-8.982 2.747-3.951 0-7.058-.902-9.322-2.706-2.264-1.804-3.396-4.284-3.396-7.44h6.05ZM40.697 30.349h6.297v30.333h-6.297zM58.239 35.617v8.15h7.182c1.426 0 2.496-.166 3.21-.495 1.262-.576 1.893-1.715 1.893-3.416 0-1.838-.61-3.073-1.831-3.704-.686-.357-1.715-.535-3.087-.535h-7.367ZM71.83 31.13a7.669 7.669 0 0 1 2.912 2.12 9.392 9.392 0 0 1 1.564 2.551c.384.933.576 1.996.576 3.19 0 1.44-.364 2.857-1.09 4.25-.728 1.392-1.928 2.376-3.602 2.952 1.4.563 2.39 1.362 2.974 2.398.583 1.036.874 2.617.874 4.743v2.038c0 1.385.055 2.325.165 2.819.165.782.549 1.358 1.152 1.728v.762H70.38a21.756 21.756 0 0 1-.411-1.626 14.938 14.938 0 0 1-.268-2.613l-.041-2.82c-.028-1.934-.38-3.224-1.06-3.868-.68-.645-1.951-.968-3.817-.968h-6.544v11.895h-6.195V30.349h14.879c2.126.04 3.762.302 4.908.782Z" style="fill:#fff;fill-rule:nonzero"/></svg>
